assets/what.svg

<?xml version="1.0" encoding="UTF-8" standalone="no"?>
<svg width="29px" height="29px" viewBox="0 0 29 29" version="1.1" xmlns="http://www.w3.org/2000/svg" xmlns:xlink="http://www.w3.org/1999/xlink">
    <g stroke="none" stroke-width="1" fill="none" fill-rule="evenodd">
        <g transform="translate(-609.000000, -1359.000000)" fill="#65B60C">
            <path d="M623.25,1387.4 C630.981986,1387.4 637.25,1381.13199 637.25,1373.4 C637.25,1365.66801 630.981986,1359.4 623.25,1359.4 C615.518014,1359.4 609.25,1365.66801 609.25,1373.4 C609.25,1381.13199 615.518014,1387.4 623.25,1387.4 Z M619.800457,1367.9295 C620.008351,1367.74606 620.236114,1367.5718 620.483753,1367.40671 C620.731391,1367.24162 620.998898,1367.09793 621.28628,1366.97564 C621.573663,1366.85334 621.8855,1366.75704 622.221799,1366.68673 C622.558098,1366.61641 622.921907,1366.58125 623.313237,1366.58125 C623.845201,1366.58125 624.32977,1366.65462 624.766959,1366.80137 C625.204148,1366.94812 625.578657,1367.15754 625.890498,1367.42964 C626.202339,1367.70173 626.443859,1368.03038 626.615066,1368.4156 C626.786273,1368.80081 626.871875,1369.23188 626.871875,1369.70882 C626.871875,1370.17352 626.804616,1370.57554 626.670097,1370.9149 C626.535577,1371.25426 626.365901,1371.54928 626.161065,1371.79997 C625.956228,1372.05067 625.734579,1372.26773 625.496113,1372.45117 C625.257646,1372.6346 625.031412,1372.80734 624.817403,1372.96937 C624.603395,1373.13141 624.418433,1373.29038 624.262513,1373.4463 C624.106592,1373.60222 624.013347,1373.77801 623.982774,1373.97368 L623.771824,1375.31275 L622.221799,1375.31275 L622.065879,1373.81776 C622.059765,1373.78719 622.056707,1373.7612 622.056707,1373.7398 L622.056707,1373.66184 C622.056707,1373.3928 622.123966,1373.15892 622.258486,1372.9602 C622.393005,1372.76148 622.561152,1372.57499 622.762932,1372.40072 C622.964711,1372.22646 623.181774,1372.05678 623.414126,1371.89169 C623.646478,1371.7266 623.863541,1371.54775 624.06532,1371.35514 C624.2671,1371.16254 624.435247,1370.94395 624.569766,1370.69936 C624.704286,1370.45478 624.771545,1370.16741 624.771545,1369.83722 C624.771545,1369.6171 624.730272,1369.41991 624.647726,1369.24564 C624.56518,1369.07138 624.450534,1368.92157 624.303786,1368.79623 C624.157037,1368.67088 623.981247,1368.57458 623.77641,1368.50732 C623.571573,1368.44006 623.349925,1368.40643 623.111458,1368.40643 C622.76293,1368.40643 622.467909,1368.44464 622.226385,1368.52107 C621.984861,1368.59751 621.780027,1368.68311 621.611878,1368.77788 C621.443728,1368.87266 621.301567,1368.95826 621.185391,1369.03469 C621.069215,1369.11112 620.96527,1369.14934 620.873552,1369.14934 C620.653429,1369.14934 620.494453,1369.05762 620.396621,1368.87419 L619.800457,1367.9295 Z M621.533918,1378.74299 C621.533918,1378.55344 621.569076,1378.37306 621.639393,1378.20185 C621.70971,1378.03065 621.807541,1377.8839 621.932889,1377.76161 C622.058237,1377.63932 622.206512,1377.54149 622.377718,1377.46811 C622.548925,1377.39474 622.732358,1377.35805 622.928023,1377.35805 C623.117574,1377.35805 623.29795,1377.39474 623.469157,1377.46811 C623.640363,1377.54149 623.78711,1377.63932 623.9094,1377.76161 C624.031691,1377.8839 624.129522,1378.03065 624.202896,1378.20185 C624.276271,1378.37306 624.312957,1378.55344 624.312957,1378.74299 C624.312957,1378.93865 624.276271,1379.12056 624.202896,1379.28871 C624.129522,1379.45686 624.031691,1379.60207 623.9094,1379.72436 C623.78711,1379.84666 623.640363,1379.94296 623.469157,1380.01327 C623.29795,1380.08359 623.117574,1380.11875 622.928023,1380.11875 C622.732358,1380.11875 622.548925,1380.08359 622.377718,1380.01327 C622.206512,1379.94296 622.058237,1379.84666 621.932889,1379.72436 C621.807541,1379.60207 621.70971,1379.45686 621.639393,1379.28871 C621.569076,1379.12056 621.533918,1378.93865 621.533918,1378.74299 Z"></path>
        </g>
    </g>
</svg>

<svg width="29" height="29" viewBox="0 0 29 29" xmlns="http://www.w3.org/2000/svg"><path d="M14.25 28.4c7.732 0 14-6.268 14-14s-6.268-14-14-14-14 6.268-14 14 6.268 14 14 14zm605.55 1339.53c.208-.184.436-.358.684-.523.247-.165.515-.31.802-.43.288-.124.6-.22.936-.29.336-.07.7-.106 1.09-.106.533 0 1.018.075 1.455.22.437.148.812.358 1.123.63.312.272.554.6.725.986.17.385.257.816.257 1.293 0 .464-.067.866-.202 1.205-.134.34-.304.634-.51.885-.204.25-.425.468-.664.65-.238.185-.465.357-.68.52-.213.16-.398.32-.553.476-.156.156-.25.332-.28.528l-.21 1.34h-1.55l-.157-1.496c-.006-.03-.01-.057-.01-.078v-.078c0-.27.068-.503.202-.702.135-.2.303-.385.505-.56.202-.174.42-.343.65-.508.233-.165.45-.344.652-.537.202-.192.37-.41.505-.656.134-.245.202-.533.202-.863 0-.22-.042-.417-.124-.59-.083-.176-.197-.325-.344-.45-.147-.126-.323-.222-.528-.29-.204-.067-.426-.1-.665-.1-.347 0-.642.038-.884.114-.24.078-.446.163-.614.258-.168.095-.31.18-.427.257-.116.076-.22.114-.31.114-.222 0-.38-.092-.478-.276l-.597-.945zm1.734 10.813c0-.19.035-.37.105-.54.07-.172.168-.32.293-.44.125-.124.274-.222.445-.295.17-.073.354-.11.55-.11.19 0 .37.037.54.11.172.073.32.17.44.294.124.122.222.27.295.44.073.17.11.35.11.54 0 .197-.037.38-.11.547-.073.167-.17.312-.294.434-.123.123-.27.22-.44.29-.172.07-.352.105-.542.105-.196 0-.38-.036-.55-.107-.17-.07-.32-.166-.445-.29-.125-.12-.223-.266-.294-.434-.07-.17-.106-.35-.106-.547z" fill="#65B60C"/></svg>
